X:479
T:Lord Alexander Gordon
R:Strathspey
C:William Marshall
B:The Athole Collection
M:C
L:1/8
K:A
c|A,>(A A)c/d/ e<A c2|e>e f/e/d/c/ d<B B>c| A,>(A A)c/d/ e<A c>e|
(3fga (3efd c<AA:|
|:E|C<(E E)F/G/ A<E A2|F<B B>c d>cB>A|(3cde (3fga a>cd>c|
(3Bcd (3efd c<AA:|

